X:131
%%pagewidth 9in
%%vocalfont Baskerville10Pro 14
T:The hunter in his career
M:C
L:1/8
K:F
%%score 1 2
V:1 clef-treble
V:2 clef-bass octave=-1
V:1
[Ff]2[Gc]B[FA]2([DG]F)|([CE]D)E[DF][EG]2[FA][EB]|[Fc]2[DF]G[CFA]2(G>F)&x6[B,E]2|[A,F]6F2|
w:Long ere the morn Ex-*pects* the re-turn Of Apel-lo from the o-cean* queen, Be-
V:2
A2E2F2B,2|C6F,G,|A,2B,2C2C2|F2C2F,2FE|
V:1
[Af]2[G(c]B)[FA]2[DG]F|[C(E]D)E[CF][CG]2[CA][EB]|[Fc]2[DF]G[FA]2(G>F)&x6E2|F8||
w:fore the* creak Of the crow* and the break Of the day in the wel-kin* seen,
w:***(croak)||||
V:2
D2E2F2B,2|C3DE2FG|A2B2c2[CB]2|[FA]2C2F,4||
V:1
[CA]2(GF)E3F&x2B,2C4|G2FE[=B,D]2[CE][B,F]&C2A,2x4|[CG]2[A,C]D[CE]2(D>C)&x6=B,2|C8|
w:Mounted he'd* halloo, And cheer-ful-ly follow To the chace with his bu-gle* clear.
V:2
F2D2C2A,2|E,2F,2G,2C,D,|E,2F,2[G,G]2[G,F]2|E8&C,2C_B,A,2G,>F,|
V:1
[CA]2GF[EB]2AG|[Fc]2[F(B][c)F]!fermata![Fd]2[FA][EB]|[Fc]2[DF]G[CFA]2(G>F)&x6[B,E]2|[A,F]8||
w:Echo doth he make, And the moun-tains* shake, With the thun-der of his ca-*reer.
V:2
F,4G,4|A,2G,A,!fermata!B,2F,G,|A,2B,2C2C2|F2C2F,4||

